packages/tokens/icons/unicorn/size16Px.svg

<svg viewBox="0 0 16 16" fill="none" xmlns="http://www.w3.org/2000/svg" width="1em" height="1em"><path d="M8.5 8.5C8.5 9.24101 8.46089 10.4739 10 11.5C11.5 12.5 11 14.5 10.9769 14.5L3.2364 14.5C2.79843 14.5 2.41341 14.2141 2.32249 13.7857C2.20381 13.2265 2.09551 12.5675 2.05276 12.1696C2.01789 11.845 2 11.5154 2 11.1815C2 6.13411 5.95529 1.5 11 1.5C11.1656 1.5 11.3303 1.50441 11.4937 1.51312L10.5 3.5L14.1921 7.60238C14.645 8.10557 14.6241 8.87586 14.1454 9.35452V9.35452C14.0492 9.45072 13.938 9.5309 13.8163 9.59175V9.59175C13.3288 9.83548 12.7401 9.73995 12.3547 9.35457L12 8.99988L10.5 8" stroke="currentColor" stroke-linecap="round" stroke-linejoin="round"/><path d="M11.7717 4.06466L13.1777 3.06057L11.9938 4.28673L11.7717 4.06466Z" stroke="currentColor"/><path d="M7.36676 5.36182C6.7982 6.35992 7.13561 7.63619 8.12039 8.21244C8.88403 8.6593 9.8127 8.55401 10.4564 8.01879" stroke="currentColor" stroke-linecap="round"/></svg>

<svg xmlns="http://www.w3.org/2000/svg" fill="none" viewBox="0 0 16 16" width="1em" height="1em"><path stroke="currentColor" stroke-linecap="round" stroke-linejoin="round" d="M8.5 8.5c0 .741-.04 1.974 1.5 3 1.5 1 1 3 .977 3h-7.74c-.439 0-.824-.286-.915-.714a18.406 18.406 0 0 1-.27-1.616A9.248 9.248 0 0 1 2 11.18C2 6.135 5.955 1.5 11 1.5c.166 0 .33.004.494.013L10.5 3.5l3.692 4.102a1.274 1.274 0 0 1-.047 1.753v0a1.267 1.267 0 0 1-.329.237v0a1.266 1.266 0 0 1-1.461-.237L12 9l-1.5-1"/><path stroke="currentColor" d="m11.772 4.065 1.406-1.004-1.184 1.226-.222-.222Z"/><path stroke="currentColor" stroke-linecap="round" d="M7.367 5.362a2.102 2.102 0 0 0 .753 2.85 2.038 2.038 0 0 0 2.336-.193"/></svg>
